X:1
T:Christ Liveth in Me
T:Christ Liveth in Me
T:James McGrahanan
T:Daniel Webster Whittle, 1891
T:Public Domain Courtesy of the Cyber Hymnal™)
C:James McGrahanan
Z:Public Domain
Z:Courtesy of the Cyber Hymnal™)
%%score ( 1 2 ) ( 3 4 )
L:1/8
Q:1/4=145
M:6/4
K:G
V:1 treble 
V:2 treble 
V:3 bass 
V:4 bass 
V:1
 [B,D]2 | [DB]4 [CA]2 [B,G]4 [DG]2 | ([EG]2 [DF]2) [CE]2 [B,D]4 [B,D]2 | [CE]4 [EG]2 [Ec]4 [Ge]2 | %4
w: 1.~Once|far from God and|dead * in sin, No|light my heart could|
w: 2.~As|rays of light from|yon- * der sun, The|flowers of earth set|
w: 3.~As|lives the flower with-|in * the seed, As|in the cone the|
w: 4.~With|long- ing all my|heart * is filled, That|like Him I may|
 [Gd]6- [Gd]4 [Dc]2 | [DB]4 [DB]2 (B2 A2) B2 | [=Fd]4 [Ec]2 [EG]4 [EA]2 | [DB]6 [CA]3 [CD] [CA]2 | %8
w: see; * But|in God’s Word * the|light I found, Now|Christ liv- eth in|
w: free, * So|life and light * and|love came forth From|Christ liv- ing in|
w: tree, * So,|praise the God * of|truth and grace, His|Spirit dwell- eth in|
w: be, * As|on the wond- * rous|thought I dwell That|Christ liv- eth in|
 [B,G]6- [B,G]6 ||"^Refrain" [GB]6 [Bd]3 [Ac] [GB]2 | [FA]12 | [EG]6 [GB]3 [FA] [EG]2 | [^DF]12 | %13
w: me. *|||||
w: me. *|Christ liv- eth in|me,|Christ liv- eth in|me,|
w: me. *|||||
w: me. *|||||
 [CE]6 [EG]2 [Ec]2 [Ge]2 | [Gd]4 [DB]2 [DG]4 [EA]2 | [DB]6 [CA]3 [CD] [CA]2 | [B,G]8- [B,G]2 |] %17
w: ||||
w: Oh! what a sal-|va- tion this, That|Christ liv- eth in|me. *|
w: ||||
w: ||||
V:2
 x2 | x12 | x12 | x12 | x12 | x6 D4 (D=F) | x12 | x12 | x12 || x12 | x12 | x12 | x12 | x12 | x12 | %15
 x12 | x10 |] %17
V:3
 [G,,G,]2 | [G,,G,]4 [D,F,]2 [E,G,]4 [B,,G,]2 | [C,G,]4 [C,G,]2 [G,,G,]4 [G,,G,]2 | %3
 [C,G,]4 [C,G,]2 [C,G,]4 [C,C]2 | [G,B,]6- [G,B,]4 [F,A,]2 | G,4 G,2 G,2 [F,A,]2 G,2 | %6
 [C,G,]4 [C,G,]2 [C,C]4 [C,C]2 | [D,G,]6 [D,F,]3 [D,F,] [D,F,]2 | [G,,G,]6- [G,,G,]6 || z12 | %10
 ([D,D]6 [D,D]3 [D,D] [D,C]2) | [E,B,]12 | ([B,,B,]6 [B,,B,]3 [B,,B,] [B,,A,]2) | %13
 ([C,G,]4 [C,G,]2) [C,C]2 [C,C]2 [C,C]2 | [G,B,]4 G,2 [B,,G,]4 [C,G,]2 | %15
 [D,G,]6 [D,F,]3 [D,F,] D,2 | [G,,D,]8- [G,,D,]2 |] %17
V:4
 x2 | x12 | x12 | x12 | x12 | G,4 G,2 (G,2 G,2) x2 | x12 | x12 | x12 || x12 | x12 | x12 | x12 | %13
 x12 | x12 | x10 D,2 | x10 |] %17

